!!!!SEGMENT: pl-gd--ee-1638--002-016_marenzio-luca--motettorum-pro-festis-totius-anni-in-festo-s-pauli-apostoli-hodie-paulus-apostolus.krn
!!!cenid: 15xx:1019
!!!COM: Marenzio, Luca
!!!COM-rismID:
!!!CDT: ~1553-1599/08/22
!!!CNT: Italian
!!!GTL: Motettorum pro festis totius anni
!!!OTL: In festo S. Pauli Apostoli/Hodie Paulus Apostolus
!!!OMV: 016
!!!PDT: 1588
!!!AGN:
!!!SMS-siglum: PL-GD
!!!SMS-shelfmark: Ee 1638
!!!SMS-variant:
!!!SMS-altvar:
!!!SMS-shelfwork: 002-016 G
!!!NIFC-rismSourceID: 990039238
!!!NIFC-islandoraID: pl-gd:57883
!!!URL-pdf-islandora: https://repozytorium.nifc.pl/islandora/object/pl-gd%3A57883/datastream/PDF/view
!!!URL-scan: https://polish.musicsources.pl/pl/lokalizacje/galeria/klocki-introligatorskie/655 @EN{Scan on Polish Music Herritage in Open Access Website} @PL{Skany w portalu Dziedzictwo Muzyki Polskiej w otwartym dostępie}
!!!ONB-nifc: UWAGA: Cantus: s. 624 (lewa), Altus: s. 472 (lewa), Tenor: s. 320 (lewa), Bassus: s. 168 (lewa)
!!!AIN: 1 alto 1 bass 1 soprn 1 tenor
!!!key: a
**kern	**text	**kern	**text	**kern	**text	**kern	**text
*part4	*part4	*part3	*part3	*part2	*part2	*part1	*part1
*staff4	*staff4	*staff3	*staff3	*staff2	*staff2	*staff1	*staff1
*I"BASSO	*	*I"TENORE	*	*I"ALTO	*	*I"CANTO	*
*I'B	*	*I'T	*	*I'A	*	*I'S	*
*Ibass	*	*Itenor	*	*Ialto	*	*Isoprn	*
*ICvox	*	*ICvox	*	*ICvox	*	*ICvox	*
*clefF4	*	*clefC4	*	*clefC3	*	*clefC1	*
*k[]	*	*k[]	*	*k[]	*	*k[]	*
*a:	*	*a:	*	*a:	*	*a:	*
*M2/1	*	*M2/1	*	*M2/1	*	*M2/1	*
*met(C|)	*	*met(C|)	*	*met(C|)	*	*met(C|)	*
=1-	=1-	=1-	=1-	=1-	=1-	=1-	=1-
!LO:TX:a:i:t=In festo S. Pauli Apostoli.	!	!LO:TX:a:i:t=In festo S. Pauli Apostoli.	!	!LO:TX:a:i:t=In festo S. Pauli Apostoli.	!	!LO:TX:a:i:t=In festo S. Pauli Apostoli.	!
00r	.	00r	.	2.A/	HO-	2r	.
.	.	.	.	.	.	1a	HO-
.	.	.	.	4B/	.	.	.
.	.	.	.	4c/	.	.	.
.	.	.	.	4d\	.	.	.
.	.	.	.	2.e\	.	4g/	.
.	.	.	.	.	.	4f/	.
=2-	=2-	=2-	=2-	=2-	=2-	=2-	=2-
.	.	.	.	.	.	4g/	.
.	.	.	.	4d\	.	4f/	.
.	.	.	.	1d	.	4f/	.
.	.	.	.	.	.	8e/	.
.	.	.	.	.	.	8d/	.
.	.	.	.	.	.	2.e/	-di-
.	.	.	.	2c#X/	-di-	.	.
.	.	.	.	.	.	4e/	.
=3-	=3-	=3-	=3-	=3-	=3-	=3-	=3-
00r	.	00r	.	1d	-e	2d/	-e
.	.	.	.	.	.	1a	Pau-
.	.	.	.	1f	Pau-	.	.
.	.	.	.	.	.	2a\	-lus
=4-	=4-	=4-	=4-	=4-	=4-	=4-	=4-
.	.	.	.	2e\	-lus	2b\	A-
.	.	.	.	2A/	A-	2.cc\	-po-
.	.	.	.	2.cny/	-po-	.	.
.	.	.	.	.	.	4b\	.
.	.	.	.	.	.	1a\	.
.	.	.	.	8B/	.	.	.
.	.	.	.	8A/	.	.	.
=5-	=5-	=5-	=5-	=5-	=5-	=5-	=5-
0r	.	0r	.	2.B/	.	.	.
.	.	.	.	.	.	2g#X/	-ſto-
.	.	.	.	4B/	-ſto-	.	.
!	!	!	!	!LO:SIC:v:t=custos A	!	!LO:SIC:v:t=custos a	!
!	!	!	!	!LO:LB:g=original	!	!LO:LB:g=original	!
.	.	.	.	2.A/	-lus	2.a\	-lus
.	.	.	.	4B/	.	8gny/	.
.	.	.	.	.	.	8f/	.
=6-	=6-	=6-	=6-	=6-	=6-	=6-	=6-
2r	.	2.A/	HO-	4c/	.	1e	.
.	.	.	.	4B/	.	.	.
1A	HO-	.	.	4c/	.	.	.
.	.	4B\	.	4d\	.	.	.
.	.	4c\	.	1e	.	1r	.
.	.	4d\	.	.	.	.	.
4G\	.	2.e\	.	.	.	.	.
4F\	.	.	.	.	.	.	.
=7-	=7-	=7-	=7-	=7-	=7-	=7-	=7-
4G\	.	.	.	0r	.	0r	.
4F\	.	4d\	.	.	.	.	.
4F\	.	1d	.	.	.	.	.
8E\	.	.	.	.	.	.	.
8D\	.	.	.	.	.	.	.
2.E\	-di-	.	.	.	.	.	.
.	.	2c#X\	-di-	.	.	.	.
4E\	.	.	.	.	.	.	.
=8-	=8-	=8-	=8-	=8-	=8-	=8-	=8-
1D	-e	2d\	-e	2.A/	Ho-	2r	.
.	.	2.A/	Ho-	.	.	1a	Ho-
.	.	.	.	4B/	.	.	.
1r	.	.	.	4c/	.	.	.
.	.	4B\	.	4d\	.	.	.
.	.	2.cny\	.	2.e\	.	4g/	.
.	.	.	.	.	.	4f/	.
=9-	=9-	=9-	=9-	=9-	=9-	=9-	=9-
0r	.	.	.	.	.	4g/	.
.	.	4d\	.	4d\	.	4f/	.
.	.	2B-X\	.	1d	.	4f/	.
.	.	.	.	.	.	8e/	.
.	.	.	.	.	.	8d/	.
.	.	1A	-di-	.	.	2.e/	-di-
.	.	.	.	2c#X/	-di-	.	.
.	.	.	.	.	.	4e/	.
=10-	=10-	=10-	=10-	=10-	=10-	=10-	=10-
2r	.	1D	-e	1d	-e	4d/	-e
.	.	.	.	.	.	4e/	.
1D	Pau-	.	.	.	.	4f/	.
.	.	.	.	.	.	4g/	.
!	!	!LO:SIC:v:t=custos d	!	!	!	!	!
!	!	!LO:LB:g=original	!	!	!	!	!
.	.	1d	Pau-	1f	Pau-	1a	.
2D/	-lus	.	.	.	.	.	.
=11-	=11-	=11-	=11-	=11-	=11-	=11-	=11-
2E\	A-	1c	-lus	2e\	-lus	0r	.
!LO:SIC:v:t=custos F	!	!	!	!	!	!	!
!LO:LB:g=original	!	!	!	!	!	!	!
2.F\	-po-	.	.	2A/	A-	.	.
.	.	1A	A-	2.f\	-po-	.	.
4E\	.	.	.	.	.	.	.
1D\	.	.	.	.	.	.	.
.	.	.	.	8e\	.	.	.
.	.	.	.	8d\	.	.	.
=12-	=12-	=12-	=12-	=12-	=12-	=12-	=12-
.	.	2.A/	-po-	2.e\	.	2r	.
2C#X/	-ſto-	.	.	.	.	1f	Pau-
.	.	4A/	-ſto-	4e\	-ſto-	.	.
!	!	!	!	!LO:SIC:v:t=custos f	!	!	!
!	!	!	!	!LO:LB:g=original	!	!	!
1D	-lus	1A	-lus	2f\	-lus	.	.
.	.	.	.	1d\	lu-	2a\	-lus
=13-	=13-	=13-	=13-	=13-	=13-	=13-	=13-
1r	.	2r	.	.	.	2b\	A-
.	.	1A	Pau-	1e	-men	2.cc\	-po-
2r	.	.	.	.	.	.	.
.	.	.	.	.	.	4b\	.
!	!	!	!	!	!	!LO:SIC:v:t=custos a	!
!	!	!	!	!	!	!LO:LB:g=original	!
1D\	lu-	2A/	-lus	1f\	or-	1a\	.
=14-	=14-	=14-	=14-	=14-	=14-	=14-	=14-
.	.	2Bny\	A-	.	.	.	.
2E\	-men	2.c\	-po-	4e\	.	2g/	-ſto-
.	.	.	.	4d\	.	.	.
1F	or-	.	.	2.cny/	.	1a	-lus
.	.	4B\	.	.	.	.	.
.	.	1A\	.	.	.	.	.
.	.	.	.	8B/	.	.	.
.	.	.	.	8A/	.	.	.
=15-	=15-	=15-	=15-	=15-	=15-	=15-	=15-
1E	-bis	.	.	2c/	.	2r	.
.	.	2G#X/	-ſto-	2B/	-bis	1e	lu-
1AA	ter-	1A	-lus	1c	ter-	.	.
.	.	.	.	.	.	2f#X/	-men
=16-	=16-	=16-	=16-	=16-	=16-	=16-	=16-
2GG/	-r(ae)	2r	.	1d	-r(ae)	1g	or-
*	*ij	*	*	*	*	*	*
1G	lu-	1B	lu-	.	.	.	.
.	.	.	.	1r	.	2d/	-bis
*	*	*	*	*	*	*	*ij
2A\	-men	2c\	-men	.	.	1fny/	lu-
=17-	=17-	=17-	=17-	=17-	=17-	=17-	=17-
1B-X	or-	1d	or-	2r	.	.	.
.	.	.	.	2d\	lu-	2g/	-men
1A	-bis	1c	-bis	1e	-men	1.a	or-
=18-	=18-	=18-	=18-	=18-	=18-	=18-	=18-
1D	ter-	1F	ter-	1f	or-	.	.
.	.	.	.	.	.	2b\	-bis
*	*	*	*	*	*	*	*Xij
!	!	!LO:SIC:v:t=custos G	!	!	!	!	!
!	!	!LO:LB:g=original	!	!	!	!	!
1Cny	-r(ae)	1Gny	-r(ae)	1e	-bis	4cc\	ter-
*	*Xij	*	*	*	*	*	*
.	.	.	.	.	.	4c/	.
.	.	.	.	.	.	2.g/	.
=19-	=19-	=19-	=19-	=19-	=19-	=19-	=19-
2r	.	2.c\	in-	1A	ter-	.	.
.	.	.	.	.	.	8f/	.
.	.	.	.	.	.	8e/	.
1c	in-	.	.	.	.	2f#X/	.
.	.	4d\	.	.	.	.	.
.	.	2e\	.	2G/	-r(ae)	1g	-r(ae)
2Bny\	-cli-	2d\	-cli-	1g\	in-	.	.
!LO:SIC:v:t=custos A	!	!	!	!	!	!	!
!LO:LB:g=original	!	!	!	!	!	!	!
=20-	=20-	=20-	=20-	=20-	=20-	=20-	=20-
1A	-na-	1c	-na-	.	.	00r	.
.	.	.	.	1f	-cli-	.	.
1G	-to	1B	-to	.	.	.	.
!	!	!	!	!LO:SIC:v:t=custos e	!	!	!
!	!	!	!	!LO:LB:g=original	!	!	!
.	.	.	.	1e\	-na-	.	.
=21-	=21-	=21-	=21-	=21-	=21-	=21-	=21-
1F	ca-	1A	ca-	.	.	.	.
.	.	.	.	1d	-to	.	.
1E	-pi-	1G	-pi-	.	.	.	.
.	.	.	.	1c\	ca-	.	.
=22-	=22-	=22-	=22-	=22-	=22-	=22-	=22-
1D	-te	1F	-te	.	.	2r	.
.	.	.	.	2B/	-pi-	1dd	in-
2r	.	1r	.	1A	-te	.	.
!	!	!	!	!	!	!LO:SIC:v:t=custos cc	!
!	!	!	!	!	!	!LO:LB:g=original	!
*	*ij	*	*	*	*	*	*
1A\	in-	.	.	.	.	1cc\	-cli-
=23-	=23-	=23-	=23-	=23-	=23-	=23-	=23-
.	.	00r	.	1e	in-	.	.
1G	-cli-	.	.	.	.	1b	-na-
.	.	.	.	1d	-cli-	.	.
1F\	-na-	.	.	.	.	1a\	-to
=24-	=24-	=24-	=24-	=24-	=24-	=24-	=24-
.	.	.	.	2.c/	-na-	.	.
1E	-to	.	.	.	.	1g	ca-
.	.	.	.	8B/	.	.	.
.	.	.	.	8A/	.	.	.
.	.	.	.	2B/	.	.	.
1D/	ca-	.	.	2d\	-to	2fny/	-pi-
=25-	=25-	=25-	=25-	=25-	=25-	=25-	=25-
.	.	2r	.	2.A/	ca-	2e/	-te
*	*	*	*	*	*	*	*ij
2C/	-pi-	1c	in-	.	.	1ee	in-
.	.	.	.	4G/	-pi-	.	.
1GG	-te	.	.	2G/	-te	.	.
*	*Xij	*	*	*	*	*	*
.	.	1B\	-cli-	2g\	pro	1dd\	-cli-
=26-	=26-	=26-	=26-	=26-	=26-	=26-	=26-
1AA	pro	.	.	0.e	Chri-	.	.
.	.	1A	-na-	.	.	1cc	-na-
0E	Chri-	.	.	.	.	.	.
.	.	2G/	-to	.	.	1b\	-to
=27-	=27-	=27-	=27-	=27-	=27-	=27-	=27-
.	.	1c	ca-	.	.	.	.
.	.	.	.	.	.	1a	ca-
1E	-ſti	1B	-pi-	1e	-ſti	.	.
.	.	.	.	.	.	2g#X/	-pi-
=28-	=28-	=28-	=28-	=28-	=28-	=28-	=28-
2.F\	no-	2A/	-te	2c/	no-	0a	-te
*	*	*	*	*	*	*	*Xij
.	.	2D/	pro	2f\	-mi-	.	.
4E\	-mi-	.	.	.	.	.	.
2D/	-ne	1A	Chri-	2f\	-ne	.	.
!LO:SIC:v:t=custos C#	!	!	!	!	!	!	!
!LO:LB:g=original	!	!	!	!	!	!	!
2C#X/	mar-	.	.	2e\	mar-	.	.
!	!	!LO:SIC:v:t=custos A	!	!LO:SIC:v:t=custos f	!	!	!
!	!	!LO:LB:g=original	!	!LO:LB:g=original	!	!	!
=29-	=29-	=29-	=29-	=29-	=29-	=29-	=29-
2.D/	-ty-	1A	-ſti	2.f\	-ty-	2r	.
.	.	.	.	.	.	2a\	pro
4D/	-ri-	.	.	4f\	-ri-	.	.
1AA	-o	2.c\	no-	2e\	-o	1ee	Chri-
.	.	.	.	2A/	pro	.	.
.	.	4B\	-mi-	.	.	.	.
=30-	=30-	=30-	=30-	=30-	=30-	=30-	=30-
0r	.	2A/	-ne	0e	Chri-	1ee	-ſti
.	.	2G#X/	mar-	.	.	.	.
.	.	1.A	-ty-	.	.	2.cc\	no-
.	.	.	.	.	.	4b\	-mi-
=31-	=31-	=31-	=31-	=31-	=31-	=31-	=31-
2r	.	.	.	1e	-ſti	2a\	-ne
2AA/	pro	2A/	-ri-	.	.	2a\	mar-
!	!	!	!	!	!	!LO:SIC:v:t=custos g	!
!	!	!	!	!	!	!LO:LB:g=original	!
1E	Chri-	1B	-o	2.e\	no-	2.gny/	-ty-
.	.	.	.	4d\	-mi-	4f/	-ri-
=32-	=32-	=32-	=32-	=32-	=32-	=32-	=32-
1E	-ſti	2.Gny/	no-	2c/	-ne	1e	-o
.	.	.	.	2B/	mar-	.	.
.	.	4F/	-mi-	.	.	.	.
2.Cny/	no-	2E/	-ne	1.e	-ty-	2r	.
.	.	2E/	mar-	.	.	2.cc\	co-
4BB/	-mi-	.	.	.	.	.	.
=33-	=33-	=33-	=33-	=33-	=33-	=33-	=33-
2AA/	-ne	2.E/	-ty-	.	.	.	.
.	.	.	.	.	.	8b\	.
.	.	.	.	.	.	8a\	.
2GG#X/	mar-	.	.	2e\	-ri-	2b\	.
.	.	4E/	-ri-	.	.	.	.
2.AA/	-ty-	2E/	-o	0e	-o	2cc\	-ro-
.	.	2.c\	co-	.	.	2.a\	-na-
4AA/	-ro	.	.	.	.	.	.
=34-	=34-	=34-	=34-	=34-	=34-	=34-	=34-
1E	.	.	.	.	.	.	.
.	.	8B\	.	.	.	8g/	.
.	.	8A\	.	.	.	8f/	.
.	.	2B\	.	.	.	2g/	.
2r	.	2.A/	-ro-	2r	.	4a\	-tus
.	.	.	.	.	.	8g/	.
.	.	.	.	.	.	8f/	.
2.A\	co-	.	.	2.c/	co-	2e/	.
.	.	8G/	.	.	.	.	.
.	.	8F/	.	.	.	.	.
!	!	!LO:SIC:v:t=custos E	!	!	!	!	!
!	!	!LO:LB:g=original	!	!	!	!	!
=35-	=35-	=35-	=35-	=35-	=35-	=35-	=35-
.	.	1E	.	.	.	1e	eſt
8G\	.	.	.	8B/	.	.	.
8F\	.	.	.	8A/	.	.	.
2G\	.	.	.	2B/	.	.	.
!LO:SIC:v:t=custos A	!	!	!	!	!	!	!
!LO:LB:g=original	!	!	!	!	!	!	!
2A\	-ro-	2.c\	-na-	1e	-ro-	2r	.
*	*	*	*	*	*	*	*ij
2.c\	-na-	.	.	.	.	2.ee\	co-
.	.	8B\	.	.	.	.	.
.	.	8A\	.	.	.	.	.
=36-	=36-	=36-	=36-	=36-	=36-	=36-	=36-
.	.	2G/	.	2.g\	-na-	.	.
8B\	.	.	.	.	.	8dd\	.
8A\	.	.	.	.	.	8cc\	.
2B\	.	2G/	-tus	.	.	2dd\	.
.	.	.	.	4g\	-tus	.	.
1c	-tus	1C	eſt	2g\	eſt	2ee\	-ro-
!	!	!	!	!LO:SIC:v:t=custos e	!	!	!
!	!	!	!	!LO:LB:g=original	!	!	!
*	*	*	*	*	*ij	*	*
.	.	.	.	2.e\	co-	2.cc\	-na-
=37-	=37-	=37-	=37-	=37-	=37-	=37-	=37-
1G	eſt	1r	.	.	.	.	.
.	.	.	.	8d\	.	8b\	.
.	.	.	.	8c\	.	8a\	.
!	!	!	!	!	!	!LO:SIC:v:t=custos b	!
!	!	!	!	!	!	!LO:LB:g=original	!
.	.	.	.	2d\	.	2b\	.
2r	.	2r	.	1e	-ro-	1cc	-tus
*	*ij	*	*	*	*	*	*
2.A\	co-	2.c\	co-	.	.	.	.
=38-	=38-	=38-	=38-	=38-	=38-	=38-	=38-
.	.	.	.	1.e	-na-	1ee	eſt
*	*	*	*	*	*	*	*Xij
8G\	.	8B\	.	.	.	.	.
8F\	.	8A\	.	.	.	.	.
2G\	.	2B\	.	.	.	.	.
2A\	-ro-	1c	-ro-	.	.	2r	.
2.F\	-na-	.	.	2f\	-tus	2.a\	co-
=39-	=39-	=39-	=39-	=39-	=39-	=39-	=39-
.	.	2A/	-na-	1c	eſt	.	.
8E\	.	.	.	.	.	8g/	.
8D\	.	.	.	.	.	8f/	.
2E\	.	2c\	-tus	.	.	2g/	.
1F	-tus	0c	eſt	2r	.	2a\	-ro-
.	.	.	.	2.a\	co-	2.f/	-na-
=40-	=40-	=40-	=40-	=40-	=40-	=40-	=40-
1C	eſt	.	.	.	.	.	.
.	.	.	.	8g\	.	8e/	.
.	.	.	.	8f\	.	8d/	.
.	.	.	.	2g\	.	2e/	.
*	*	*	*ij	*	*	*	*
2r	.	2F/	co-	2a\	-ro-	1f	-tus
2.D/	co-	2A/	-ro-	2.f\	-na-	.	.
=41-	=41-	=41-	=41-	=41-	=41-	=41-	=41-
.	.	1.A	-na-	.	.	1a	eſt
8C/	.	.	.	8e\	.	.	.
8BB/	.	.	.	8d\	.	.	.
!LO:SIC:v:t=custos C#	!	!	!	!	!	!	!
!LO:LB:g=original	!	!	!	!	!	!	!
2C#X/	-ro-	.	.	2e\	.	.	.
2D/	-na-	.	.	1f	-tus	2r	.
*	*	*	*	*	*	*	*ij
2.BB-X/	.	2B-X\	-tus	.	.	2.dd\	co-
!	!	!LO:SIC:v:t=custos F	!	!	!	!	!
!	!	!LO:LB:g=original	!	!	!	!	!
=42-	=42-	=42-	=42-	=42-	=42-	=42-	=42-
.	.	0.F	eſt	2.f\	eſt	.	.
*	*	*	*Xij	*	*Xij	*	*
8AA/	.	.	.	.	.	8cc\	.
8GGny/	.	.	.	.	.	8b\	.
2AA/	.	.	.	.	.	2cc\	.
.	.	.	.	4e\	.	.	.
1BB-X	-tus	.	.	1d	.	2dd\	-ro-
.	.	.	.	.	.	2.b-X\	-na-
=43-	=43-	=43-	=43-	=43-	=43-	=43-	=43-
2FF/	eſt	.	.	2r	.	.	.
*	*Xij	*	*	*	*	*	*
.	.	.	.	.	.	8a\	.
.	.	.	.	.	.	8g\	.
2F\	Al-	.	.	2A/	Al-	2a\	.
!	!	!	!	!LO:SIC:v:t=custos B	!	!LO:SIC:v:t=custos g	!
!	!	!	!	!LO:LB:g=original	!	!LO:LB:g=original	!
2G\	-le-	1r	.	2B/	-le-	2g/	-tus
2A\	-lu-	.	.	2c#X/	-lu-	2e/	eſt
*	*	*	*	*	*	*	*Xij
=44-	=44-	=44-	=44-	=44-	=44-	=44-	=44-
1D	-ia	2r	.	2d\	-ia	2r	.
*	*	*	*	*	*ij	*	*
.	.	2A/	Al-	2.d\	Al-	2a\	Al-
1r	.	2G/	-le-	.	.	2bny\	-le-
.	.	.	.	8cny/	.	.	.
.	.	.	.	8B/	.	.	.
.	.	2F/	-lu-	2A/	.	2.cc\	-lu-
=45-	=45-	=45-	=45-	=45-	=45-	=45-	=45-
2r	.	1c	-ia	4e\	-le-	.	.
.	.	.	.	4d\	.	4b\	.
2Cny/	Al-	.	.	2c/	.	1a	.
2D/	-le-	1r	.	1B	-lu-	.	.
2E\	-lu-	.	.	.	.	2g#X/	.
=46-	=46-	=46-	=46-	=46-	=46-	=46-	=46-
2AA/	-ia	2r	.	1A	-ia	4a\	-ia
.	.	.	.	.	.	8gny/	.
.	.	.	.	.	.	8f/	.
*	*ij	*	*ij	*	*	*	*
2A\	Al-	2c\	Al-	.	.	4e/	.
.	.	.	.	.	.	4f/	.
2B\	-le-	2d\	-le-	1r	.	1g	.
2c\	-lu-	2e\	-lu-	.	.	.	.
!LO:SIC:v:t=custos F	!	!	!	!	!	!	!
!LO:LB:g=original	!	!	!	!	!	!	!
=47-	=47-	=47-	=47-	=47-	=47-	=47-	=47-
2F\	-ia	1A	-ia	2r	.	2r	.
*	*	*	*	*	*	*	*ij
2A\	Al-	.	.	2c/	Al-	2cc\	Al-
2G\	-le-	1r	.	2d\	-le-	2b\	-le-
2E\	-lu-	.	.	2e\	-lu-	2.cc\	-lu-
=48-	=48-	=48-	=48-	=48-	=48-	=48-	=48-
2F\	-ia	2r	.	4A/	-ia	.	.
.	.	.	.	4B/	.	4b\	.
2F\	Al-	2A/	Al-	4c/	.	2a\	.
.	.	.	.	4d\	.	.	.
2E\	-le-	2Bny\	-le-	1e	.	1g	-ia
2C/	-lu-	2c\	-lu-	.	.	.	.
=49-	=49-	=49-	=49-	=49-	=49-	=49-	=49-
2D/	-ia	1F	-ia	2r	.	2r	.
2F\	Al-	.	.	2c/	Al-	2a\	Al-
2G\	-le-	1r	.	2B/	-le-	2g/	-le-
2A\	-lu-	.	.	2c#X/	-lu-	2e/	-lu-
=50-	=50-	=50-	=50-	=50-	=50-	=50-	=50-
1D	-ia	2r	.	2d\	-ia	4f/	-ia
*	*Xij	*	*	*	*	*	*
.	.	.	.	.	.	4g/	.
.	.	2A/	Al-	1d	Al-	4a\	.
.	.	.	.	.	.	4f/	.
!	!	!	!	!	!	!LO:SIC:v:t=custos g	!
!	!	!	!	!	!	!LO:LB:g=original	!
2r	.	2B\	-le-	.	.	2g/	.
!	!	!	!	!LO:SIC:v:t=custos e	!	!	!
!	!	!	!	!LO:LB:g=original	!	!	!
2E\	Al-	2.c\	-lu-	2e\	-le-	2g/	Al-
=51-	=51-	=51-	=51-	=51-	=51-	=51-	=51-
2F\	-le-	.	.	1d	-lu-	2a\	-le-
.	.	8B\	.	.	.	.	.
.	.	8A\	.	.	.	.	.
!	!	!LO:SIC:v:t=custos B	!	!	!	!	!
!	!	!LO:LB:g=original	!	!	!	!	!
2G\	-lu-	2B\	.	.	.	2g/	-lu-
1C	-ia	2.c\	-ia	1e	-ia	1g	-ia
.	.	8B\	.	.	.	.	.
.	.	8A\	.	.	.	.	.
=52-	=52-	=52-	=52-	=52-	=52-	=52-	=52-
*	*ij	*	*	*	*	*	*
0C	Al-	1G	.	0e	Al-	2r	.
!	!	!	!	!	!	!LO:N:vis=4	!
.	.	.	.	.	.	2g/	Al-
.	.	2G/	Al-	.	.	4cc\	-le-
.	.	.	.	.	.	4b\	.
.	.	4c\	-le-	.	.	4a\	.
.	.	4B\	.	.	.	4g/	.
=53-	=53-	=53-	=53-	=53-	=53-	=53-	=53-
*	*	*	*	*lig	*	*	*
0D	-le-	4A/	.	1a	-le-	4f/	.
.	.	4G/	.	.	.	4d/	.
.	.	4F/	.	.	.	2.dd\	.
.	.	4D/	.	.	.	.	.
.	.	2.d\	.	1f	.	.	.
.	.	.	.	.	.	4cc\	.
.	.	.	.	.	.	4b\	.
.	.	4c\	.	.	.	4a\	.
*	*	*	*	*Xlig	*	*	*
!LO:SIC:v:t=custos E	!	!	!	!	!	!	!
!LO:LB:g=original	!	!	!	!	!	!	!
=54-	=54-	=54-	=54-	=54-	=54-	=54-	=54-
0E	-lu-	2B\	.	0e	-lu-	2g#X/	.
.	.	2A/	.	.	.	1a	.
.	.	1B	-lu-	.	.	.	.
.	.	.	.	.	.	2g#X/	-lu-
=55-	=55-	=55-	=55-	=55-	=55-	=55-	=55-
2AA/	-ia	0.A	-ia	1e	-ia	0a	-ia
*	*Xij	*	*	*	*	*	*
2A\	Al-	.	.	.	.	.	.
4c\	-le-	.	.	1e	Al-	.	.
4B\	.	.	.	.	.	.	.
4A\	.	.	.	.	.	.	.
4G\	.	.	.	.	.	.	.
=56-	=56-	=56-	=56-	=56-	=56-	=56-	=56-
4F\	.	.	.	2f\	-le-	2r	.
4D/	.	.	.	.	.	.	.
*	*	*	*	*lig	*	*	*
2.A\	.	.	.	1e	.	2a\	Al-
.	.	2r	.	.	.	4cc\	-le-
4G\	.	.	.	.	.	4b\	.
*	*	*	*	*col	*	*	*
4F\	.	2A/	Al-	2.f\	.	4a\	.
4E\	.	.	.	.	.	4gny/	.
*	*	*	*	*Xlig	*	*	*
=57-	=57-	=57-	=57-	=57-	=57-	=57-	=57-
1D	.	1A	-le-	.	.	1f	.
.	.	.	.	4e\	.	.	.
*	*	*	*	*Xcol	*	*	*
.	.	.	.	4d\	.	.	.
.	.	.	.	4cny/	.	.	.
1D	-lu-	1A	-lu-	1.d	-lu-	1f	-lu-
=58-	=58-	=58-	=58-	=58-	=58-	=58-	=58-
0AAl	-ia.	0Al	-ia	.	.	0el	-ia
*	*	*	*Xij	*	*	*	*Xij
.	.	.	.	4c#X/	.	.	.
.	.	.	.	4B/	.	.	.
.	.	.	.	1c#Xl	-ia	.	.
*	*	*	*	*	*Xij	*	*
=||	=||	=||	=||	=||	=||	=||	=||
*-	*-	*-	*-	*-	*-	*-	*-
!!!RDF**kern: l = terminal long
!!!system-decoration: [(s1,s2,s3,s4)]
!!!ENC: Mateusz Solarz
!!!END: 2022-07-05
!!!ENC: Urszula Świątek
!!!END: 2022–07-27
